dhis-2/dhis-support/dhis-support-system/src/main/resources/SVGs/vih_aids_outline.svg

<?xml version="1.0" encoding="UTF-8" standalone="no"?>
<!-- Created with Inkscape (http://www.inkscape.org/) -->
<svg id="svg8" xmlns:rdf="http://www.w3.org/1999/02/22-rdf-syntax-ns#" xmlns="http://www.w3.org/2000/svg" xmlns:osb="http://www.openswatchbook.org/uri/2009/osb" height="48" width="48" version="1.1" xmlns:cc="http://creativecommons.org/ns#" viewBox="0 0 12.7 12.7" xmlns:dc="http://purl.org/dc/elements/1.1/">
 <title id="title4753">UIO-icon</title>
 <metadata id="metadata5">
  <rdf:RDF>
   <cc:Work rdf:about="">
    <dc:format>image/svg+xml</dc:format>
    <dc:type rdf:resource="http://purl.org/dc/dcmitype/StillImage"/>
    <dc:title>UIO-icon</dc:title>
    <dc:creator>
     <cc:Agent>
      <dc:title>Joaquín Urbano</dc:title>
     </cc:Agent>
    </dc:creator>
    <dc:rights>
     <cc:Agent>
      <dc:title>GPL</dc:title>
     </cc:Agent>
    </dc:rights>
   </cc:Work>
  </rdf:RDF>
 </metadata>
 <g id="layer1" transform="translate(0,-284.3)" fill="#333">
  <path id="path906" d="m22.197 3.8555c-0.58655 0-1.0586 0.47204-1.0586 1.0586 0 0.58655 0.47204 1.0586 1.0586 1.0586h0.74414v2.1367a15.881 15.881 0 0 0 -9.4219 3.9141l-1.519-1.522 0.527-0.5235c0.41476-0.41477 0.41476-1.0833 0-1.498-0.20738-0.20738-0.47745-0.31055-0.74805-0.31055s-0.54262 0.10316-0.75 0.31055l-0.527 0.5254-1.4961 1.4961-0.5254 0.527c-0.41476 0.41477-0.41476 1.0833 0 1.498 0.41476 0.41477 1.0833 0.41477 1.498 0l0.5235-0.527 1.5312 1.5293a15.881 15.881 0 0 0 -3.8787 9.412h-2.1816v-0.74414c0-0.58656-0.47204-1.0586-1.0586-1.0586-0.58655 0-1.0586 0.47203-1.0586 1.0586v3.6055c0 0.58656 0.47204 1.0586 1.0586 1.0586 0.58655 0 1.0586-0.47204 1.0586-1.0586v-0.74414h2.2012a15.881 15.881 0 0 0 3.9082 9.3613l-1.58 1.581-0.5235-0.527c-0.41476-0.41477-1.0833-0.41477-1.498 0-0.41476 0.41477-0.41476 1.0833 0 1.498l0.52539 0.52734 1.4961 1.4961 0.52734 0.52539c0.41476 0.41473 1.0833 0.41477 1.498 0 0.41476-0.41473 0.41476-1.0833 0-1.498l-0.527-0.524 1.59-1.592a15.881 15.881 0 0 0 9.3516 3.8789v2.2422h-0.74414c-0.58655 0-1.0586 0.47204-1.0586 1.0586 0 0.58655 0.47204 1.0586 1.0586 1.0586h3.6055c0.58655 0 1.0586-0.47204 1.0586-1.0586 0-0.58655-0.47204-1.0586-1.0586-1.0586h-0.74414v-2.2578a15.881 15.881 0 0 0 9.3594 -3.8535l1.581 1.582-0.52734 0.52344c-0.41476 0.41477-0.41476 1.0833 0 1.498 0.41475 0.41477 1.0833 0.41477 1.498 0l2.5488-2.5488c0.41476-0.41477 0.41476-1.0833 0-1.498-0.41476-0.41473-1.0833-0.41473-1.498 0l-0.524 0.528-1.588-1.586a15.881 15.881 0 0 0 3.9316 -9.3555h2.1855v0.74414c0 0.58656 0.47204 1.0586 1.0586 1.0586 0.58655 0 1.0586-0.47204 1.0586-1.0586v-3.6054c0-0.58656-0.47204-1.0586-1.0586-1.0586s-1.0586 0.47203-1.0586 1.0586v0.74414h-2.1953a15.881 15.881 0 0 0 -3.858 -9.42l1.523-1.521 0.52344 0.52734c0.41476 0.41477 1.0833 0.41477 1.498 0 0.41476-0.41477 0.41476-1.0833 0-1.498l-2.548-2.5485c-0.20738-0.20736-0.4794-0.31054-0.75-0.31055-0.2706-0.000005291-0.54067 0.10316-0.74805 0.31055-0.41476 0.41473-0.41476 1.0833 0 1.498l0.527 0.5235-1.525 1.527a15.881 15.881 0 0 0 -9.416 -3.9333v-2.123h0.74414c0.58655 0 1.0586-0.47204 1.0586-1.0586 0-0.58655-0.47204-1.0586-1.0586-1.0586h-2.8613zm-0.099609 0.50977 3.7988 0.0058594c0.24856 0.039538 0.41036 0.16156 0.44531 0.4043v0.32031c-0.066276 0.20857-0.18444 0.3641-0.44727 0.36523l-1.3496-0.0019531-0.003906 3.2402a15.327 15.327 0 0 1 9.916 4.1191l2.2637-2.3086-0.96484-0.94336c-0.18671-0.18499-0.16138-0.37899-0.0625-0.57422l0.224-0.2281c0.097516-0.074343 0.19663-0.10388 0.29688-0.097656 0.10025 0.0062258 0.20218 0.048107 0.30469 0.12109l2.7129 2.6582c0.10407 0.1374 0.21124 0.27745 0.046875 0.57812l-0.22461 0.22852c-0.24095 0.14289-0.42448 0.099142-0.58398-0.027344l-0.9707-0.95117-2.2676 2.3145a15.327 15.327 0 0 1 4.0781 9.8633l3.2344 0.003906v-1.3574c0.021468-0.20244 0.11791-0.36565 0.38867-0.4375h0.32227c0.32971 0.093324 0.35375 0.26698 0.37891 0.4375l-0.003906 3.7988c-0.039446 0.24857-0.16158 0.41027-0.4043 0.44531l-0.32031-0.001953c-0.20859-0.066198-0.36401-0.18249-0.36523-0.44531l0.001953-1.3496-3.2402-0.003906a15.327 15.327 0 0 1 -4.0957 9.8906l2.2852 2.2852 0.95508-0.95312c0.18696-0.18474 0.37809-0.15758 0.57227-0.056641l0.22656 0.22656c0.1466 0.1966 0.11884 0.39615-0.029297 0.59961l-2.6875 2.6855c-0.1385 0.10261-0.27921 0.20661-0.57812 0.039062l-0.227-0.228c-0.14034-0.24245-0.093013-0.42583 0.035156-0.58398l0.96094-0.95898-2.2793-2.2812a15.327 15.327 0 0 1 -9.8984 4.1016l0.003906 3.2344h1.3496c0.26283 0.00113 0.38099 0.15472 0.44727 0.36328v0.32031c-0.034949 0.24273-0.19676 0.36476-0.44531 0.4043l-3.7988 0.005859c-0.17053-0.025096-0.34405-0.051179-0.4375-0.38086v-0.32031c0.07175-0.27079 0.23507-0.36713 0.4375-0.38867l1.3574-0.001953-0.003906-3.2441a15.327 15.327 0 0 1 -9.8867 -4.0996l-2.2988 2.3027 0.95508 0.95312c0.18491 0.18678 0.1574 0.37995 0.056641 0.57422l-0.22656 0.22656c-0.19646 0.14678-0.39796 0.11865-0.60156-0.029297l-2.6873-2.683c-0.10274-0.1384-0.20828-0.27905-0.041016-0.57812l0.22656-0.22852c0.24231-0.14056 0.42571-0.092864 0.58398 0.035156l0.9607 0.961 2.295-2.298a15.327 15.327 0 0 1 -4.0976 -9.895l-3.2363 0.003906 0.0019531 1.3496c-0.0012271 0.26283-0.15665 0.37911-0.36523 0.44531h-0.3204c-0.2427-0.034-0.3649-0.196-0.4043-0.444l-0.0039063-3.7969c0.025159-0.17052 0.051145-0.34613 0.38086-0.43945h0.32031c0.27076 0.07185 0.3672 0.23506 0.38867 0.4375l0.0019531 1.3594 3.2441-0.003906a15.327 15.327 0 0 1 4.0742 -9.8594l-2.2695-2.3164-0.9707 0.94922c-0.15951 0.12649-0.34304 0.17218-0.58398 0.029297l-0.22461-0.22852c-0.16437-0.30068-0.057192-0.44072 0.046875-0.57812l2.7119-2.6589c0.10251-0.072986 0.20249-0.11487 0.30273-0.12109 0.10025-0.0062258 0.19936 0.023313 0.29688 0.097656l0.22461 0.22852c0.098875 0.19523 0.12421 0.38923-0.0625 0.57422l-0.965 0.9436 2.2559 2.3027a15.327 15.327 0 0 1 9.9141 -4.123l0.003906-3.2344-1.3574-0.0019531c-0.20243-0.021543-0.36575-0.11788-0.4375-0.38867v-0.32031c0.094-0.3302 0.267-0.3563 0.438-0.3814zm1.903 6.7967a12.838 12.838 0 0 0 -12.838 12.838 12.838 12.838 0 0 0 12.838 12.838 12.838 12.838 0 0 0 12.838 -12.838 12.838 12.838 0 0 0 -12.838 -12.838zm0 0.4707a12.308 12.308 0 0 1 12.309 12.306 12.308 12.308 0 0 1 -12.309 12.309 12.308 12.308 0 0 1 -12.309 -12.309 12.308 12.308 0 0 1 12.309 -12.306zm-2.9902 5.9316a3.455 3.455 0 0 0 -3.4551 3.4531 3.455 3.455 0 0 0 3.4551 3.4551 3.455 3.455 0 0 0 3.4551 -3.4551 3.455 3.455 0 0 0 -3.4551 -3.4531zm0 0.50391a2.9347 2.9347 0 0 1 2.9336 2.9336 2.9347 2.9347 0 0 1 -2.9336 2.9355 2.9347 2.9347 0 0 1 -2.9355 -2.9355 2.9347 2.9347 0 0 1 2.9355 -2.9336zm8.2812 4.4551a2.4256 2.4256 0 0 0 -2.426 2.425 2.4256 2.4256 0 0 0 2.426 2.426 2.4256 2.4256 0 0 0 2.426 -2.426 2.4256 2.4256 0 0 0 -2.426 -2.426zm-0.017578 0.51758a1.8948 1.8948 0 0 1 1.8945 1.8945 1.8948 1.8948 0 0 1 -1.8945 1.8945 1.8948 1.8948 0 0 1 -1.8945 -1.8945 1.8948 1.8948 0 0 1 1.8945 -1.8945zm-5.2227 6.4082a1.6769 1.6769 0 0 0 -1.675 1.677 1.6769 1.6769 0 0 0 1.6758 1.6758 1.6769 1.6769 0 0 0 1.6777 -1.6758 1.6769 1.6769 0 0 0 -1.6777 -1.6777zm0.009766 0.55273a1.1565 1.1565 0 0 1 1.1582 1.1562 1.1565 1.1565 0 0 1 -1.1582 1.1562 1.1565 1.1565 0 0 1 -1.1562 -1.1562 1.1565 1.1565 0 0 1 1.1562 -1.1562z" transform="matrix(.26458 0 0 .26458 0 284.3)"/>
 </g>
</svg>

<svg width="48" height="48" viewBox="0 0 48 48" fill="none" xmlns="http://www.w3.org/2000/svg">
<path d="M22.1968 3.85547C21.6103 3.85547 21.1382 4.3275 21.1382 4.91406C21.1382 5.5006 21.6103 5.97264 22.1968 5.97264H22.941V8.10931C19.4554 8.34221 16.1438 9.71792 13.5192 12.0234L12.0002 10.5014L12.5272 9.97789C12.942 9.56313 12.942 8.89461 12.5272 8.47991C12.3198 8.27253 12.0498 8.16936 11.7792 8.16936C11.5086 8.16936 11.2365 8.27252 11.0292 8.47991L10.5022 9.0053L9.00609 10.5014L8.4807 11.0284C8.06594 11.4431 8.06594 12.1117 8.4807 12.5264C8.89545 12.9411 9.56399 12.9411 9.97868 12.5264L10.5022 11.9994L12.0334 13.5286C9.74274 16.1553 8.3798 19.4626 8.1547 22.9405H5.97313V22.1964C5.97313 21.6098 5.5011 21.1378 4.91454 21.1378C4.328 21.1378 3.85596 21.6098 3.85596 22.1964V25.8019C3.85596 26.3884 4.32799 26.8604 4.91454 26.8604C5.50109 26.8604 5.97313 26.3884 5.97313 25.8019V25.0577H8.1743C8.41857 28.5215 9.79136 31.8097 12.0825 34.4189L10.5025 35.9999L9.97898 35.4729C9.56423 35.0581 8.89569 35.0581 8.481 35.4729C8.06624 35.8877 8.06624 36.5562 8.481 36.9709L9.00638 37.4982L10.5025 38.9943L11.0298 39.5197C11.4446 39.9344 12.1131 39.9344 12.5278 39.5197C12.9425 39.1049 12.9425 38.4364 12.5278 38.0217L12.0008 37.4977L13.5908 35.9057C16.2013 38.1842 19.4854 39.5464 22.9422 39.7846V42.0267H22.1981C21.6116 42.0267 21.1395 42.4988 21.1395 43.0853C21.1395 43.6719 21.6116 44.1439 22.1981 44.1439H25.8036C26.3901 44.1439 26.8622 43.6719 26.8622 43.0853C26.8622 42.4988 26.3901 42.0267 25.8036 42.0267H25.0594V39.769C28.516 39.5397 31.8027 38.1864 34.4187 35.9155L35.9997 37.4975L35.4724 38.0209C35.0576 38.4357 35.0576 39.1042 35.4724 39.5189C35.8871 39.9337 36.5557 39.9337 36.9704 39.5189L39.5191 36.9701C39.9339 36.5554 39.9339 35.8869 39.5191 35.4722C39.1044 35.0574 38.4358 35.0574 38.0211 35.4722L37.4971 36.0002L35.9092 34.4142C38.2076 31.8096 39.5886 28.5233 39.8407 25.0588H42.0262V25.8029C42.0262 26.3895 42.4982 26.8615 43.0848 26.8615C43.6713 26.8615 44.1434 26.3895 44.1434 25.8029V22.1976C44.1434 21.611 43.6713 21.139 43.0848 21.139C42.4982 21.139 42.0262 21.611 42.0262 22.1976V22.9417H39.8309C39.6134 19.4635 38.2577 16.1534 35.973 13.5218L37.4959 12.0008L38.0194 12.5282C38.4341 12.9429 39.1027 12.9429 39.5174 12.5282C39.9321 12.1134 39.9321 11.4449 39.5174 11.0302L36.9694 8.48172C36.762 8.27436 36.49 8.17118 36.2194 8.17117C35.9488 8.17117 35.6787 8.27433 35.4714 8.48172C35.0566 8.89644 35.0566 9.56501 35.4714 9.9797L35.9984 10.5032L34.4734 12.0302C31.8529 9.71896 28.5434 8.33647 25.0575 8.09693V5.97395H25.8016C26.3882 5.97395 26.8602 5.50192 26.8602 4.91537C26.8602 4.32882 26.3882 3.85678 25.8016 3.85678H22.9404L22.1968 3.85547ZM22.0972 4.36523L25.896 4.37109C26.1445 4.41063 26.3063 4.53265 26.3413 4.77539V5.09569C26.275 5.30426 26.1568 5.45979 25.894 5.46092L24.5444 5.45897L24.5405 8.69912C28.2344 8.83157 31.7559 10.2944 34.4564 12.8182L36.7201 10.5096L35.7553 9.56625C35.5685 9.38127 35.5939 9.18727 35.6928 8.99204L35.9168 8.76394C36.0143 8.6896 36.1134 8.66006 36.2136 8.66629C36.3139 8.67251 36.4158 8.71439 36.5183 8.78738L39.2312 11.4455C39.3352 11.5829 39.4424 11.723 39.2781 12.0237L39.0534 12.2522C38.8125 12.3951 38.629 12.3513 38.4695 12.2248L37.4988 11.2737L35.2312 13.5881C37.7284 16.2811 39.1755 19.7812 39.3093 23.4513L42.5436 23.4552V22.0978C42.5651 21.8954 42.6615 21.7322 42.9323 21.6603H43.2546C43.5843 21.7537 43.6083 21.9273 43.6335 22.0978L43.6296 25.8966C43.5901 26.1452 43.468 26.3069 43.2253 26.3419L42.905 26.3399C42.6964 26.2737 42.5409 26.1575 42.5397 25.8946L42.5417 24.5451L39.3015 24.5412C39.1694 28.2231 37.7155 31.7342 35.2059 34.4316L37.491 36.7168L38.4461 35.7637C38.6331 35.579 38.8242 35.6061 39.0184 35.7071L39.2449 35.9336C39.3915 36.1302 39.3638 36.3298 39.2156 36.5332L36.5282 39.2187C36.3897 39.3213 36.249 39.4253 35.9501 39.2577L35.7231 39.0297C35.5827 38.7873 35.63 38.6039 35.7582 38.4458L36.7191 37.4868L34.4399 35.2056C31.7413 37.7191 28.227 39.1753 24.5416 39.3072L24.5455 42.5415H25.8951C26.1579 42.5427 26.2761 42.6963 26.3423 42.9048V43.2251C26.3074 43.4678 26.1456 43.5899 25.897 43.6294L22.0983 43.6353C21.9278 43.6102 21.7542 43.5841 21.6608 43.2544V42.9341C21.7325 42.6633 21.8959 42.567 22.0983 42.5454L23.4557 42.5435L23.4518 39.2994C19.7707 39.1653 16.261 37.71 13.5652 35.1999L11.2664 37.5026L12.2215 38.4557C12.4064 38.6424 12.3789 38.8356 12.2781 39.0299L12.0516 39.2564C11.8551 39.4032 11.6536 39.3751 11.45 39.2271L8.76275 36.5442C8.66001 36.4058 8.55448 36.2651 8.72174 35.9661L8.94829 35.7375C9.1906 35.597 9.374 35.6447 9.53227 35.7727L10.493 36.7337L12.7879 34.4357C10.2767 31.7375 8.82194 28.2245 8.69038 24.5408L5.45412 24.5447L5.45607 25.8943C5.45484 26.1572 5.29942 26.2734 5.09085 26.3396H4.77045C4.52775 26.3056 4.40555 26.1436 4.36615 25.8956L4.36225 22.0988C4.38741 21.9283 4.41339 21.7527 4.7431 21.6593H5.06341C5.33417 21.7312 5.43061 21.8944 5.45207 22.0968L5.45403 23.4562L8.69809 23.4523C8.8317 19.7841 10.2774 16.2856 12.7722 13.593L10.5028 11.2767L9.53208 12.2259C9.37257 12.3524 9.18904 12.3981 8.9481 12.2552L8.7235 12.0267C8.55913 11.726 8.66631 11.5859 8.77037 11.4485L11.4822 8.78967C11.5847 8.71669 11.6847 8.6748 11.785 8.66858C11.8852 8.66236 11.9843 8.6919 12.0818 8.76624L12.3064 8.99476C12.4053 9.18998 12.4307 9.38398 12.2439 9.56897L11.279 10.5126L13.5348 12.8152C16.2343 10.2905 19.7551 8.82624 23.4488 8.69228L23.4527 5.45792L22.0953 5.45597C21.8929 5.43443 21.7296 5.33809 21.6578 5.0673V4.747C21.7518 4.4168 21.9248 4.3907 22.0958 4.3656L22.0972 4.36523ZM24.0002 11.1618C20.5954 11.1618 17.33 12.5144 14.9225 14.922C12.5149 17.3295 11.1624 20.5949 11.1624 23.9997C11.1624 27.4045 12.5149 30.6698 14.9225 33.0774C17.33 35.485 20.5954 36.8375 24.0002 36.8375C27.405 36.8375 30.6704 35.485 33.0779 33.0774C35.4855 30.6698 36.838 27.4045 36.838 23.9997C36.838 20.5949 35.4855 17.3295 33.0779 14.922C30.6704 12.5144 27.405 11.1618 24.0002 11.1618ZM24.0002 11.6325C27.2643 11.6323 30.3948 12.9286 32.7031 15.2364C35.0114 17.5441 36.3085 20.6743 36.3091 23.9384C36.3092 25.5548 35.9909 27.1555 35.3724 28.6489C34.7538 30.1424 33.8472 31.4993 32.7042 32.6424C31.5612 33.7854 30.2042 34.692 28.7108 35.3105C27.2173 35.9291 25.6167 36.2474 24.0002 36.2472C22.3837 36.2474 20.7831 35.9291 19.2897 35.3105C17.7962 34.692 16.4393 33.7854 15.2962 32.6424C14.1532 31.4993 13.2466 30.1424 12.628 28.6489C12.0095 27.1555 11.6912 25.5548 11.6914 23.9384C11.6919 20.6743 12.989 17.5441 15.2973 15.2364C17.6056 12.9286 20.7361 11.6323 24.0002 11.6325ZM21.01 17.5641C20.094 17.564 19.2155 17.9278 18.5676 18.5753C17.9197 19.2228 17.5555 20.1011 17.555 21.0171C17.555 21.4709 17.6443 21.9201 17.818 22.3393C17.9916 22.7585 18.2461 23.1394 18.5669 23.4602C18.8878 23.7811 19.2686 24.0356 19.6878 24.2092C20.107 24.3828 20.5563 24.4722 21.01 24.4722C21.4638 24.4722 21.9131 24.3828 22.3323 24.2092C22.7514 24.0356 23.1323 23.7811 23.4532 23.4602C23.774 23.1394 24.0285 22.7585 24.2021 22.3393C24.3758 21.9201 24.4651 21.4709 24.4651 21.0171C24.4646 20.1011 24.1004 19.2228 23.4525 18.5753C22.8046 17.9278 21.926 17.564 21.01 17.5641ZM21.01 18.068C21.788 18.0683 22.534 18.3774 23.0841 18.9275C23.6342 19.4776 23.9433 20.2236 23.9436 21.0015C23.9438 21.7798 23.6349 22.5263 23.0847 23.0768C22.5346 23.6273 21.7883 23.9367 21.01 23.937C20.6245 23.9371 20.2428 23.8612 19.8866 23.7138C19.5304 23.5663 19.2067 23.3501 18.9341 23.0775C18.6615 22.8049 18.4453 22.4812 18.2978 22.125C18.1503 21.7688 18.0745 21.3871 18.0746 21.0015C18.0749 20.2233 18.3843 19.477 18.9348 18.9268C19.4853 18.3767 20.2318 18.0678 21.01 18.068ZM29.2911 22.523C28.6479 22.5229 28.0309 22.7783 27.576 23.2331C27.121 23.6879 26.8653 24.3047 26.8652 24.948C26.8651 25.2666 26.9278 25.5821 27.0497 25.8764C27.1716 26.1708 27.3503 26.4382 27.5756 26.6635C27.8009 26.8888 28.0683 27.0675 28.3627 27.1894C28.6571 27.3113 28.9725 27.374 29.2911 27.374C29.6097 27.374 29.9252 27.3113 30.2196 27.1894C30.5139 27.0675 30.7814 26.8888 31.0067 26.6635C31.232 26.4382 31.4107 26.1708 31.5325 25.8764C31.6544 25.5821 31.7172 25.2666 31.7171 24.948C31.7172 24.6294 31.6544 24.3139 31.5325 24.0195C31.4107 23.7252 31.232 23.4577 31.0067 23.2324C30.7814 23.0072 30.5139 22.8285 30.2196 22.7066C29.9252 22.5847 29.6097 22.522 29.2911 22.522V22.523ZM29.2736 23.0406C29.776 23.0407 30.2578 23.2403 30.6131 23.5956C30.9683 23.9508 31.168 24.4326 31.168 24.9351C31.168 25.4375 30.9683 25.9193 30.6131 26.2746C30.2578 26.6298 29.776 26.8295 29.2736 26.8295C28.7711 26.8295 28.2893 26.6298 27.9341 26.2746C27.5788 25.9193 27.3792 25.4375 27.3791 24.9351C27.3792 24.4326 27.5788 23.9508 27.9341 23.5956C28.2893 23.2403 28.7711 23.0407 29.2736 23.0406ZM24.0509 29.4487C23.6065 29.4492 23.1805 29.6261 22.8664 29.9406C22.5523 30.255 22.3759 30.6813 22.3759 31.1257C22.3762 31.57 22.5529 31.9961 22.8671 32.3103C23.1813 32.6245 23.6074 32.8012 24.0517 32.8015C24.4964 32.8017 24.923 32.6253 25.2376 32.311C25.5522 31.9967 25.7291 31.5704 25.7294 31.1257C25.7295 30.9053 25.6862 30.6871 25.6019 30.4835C25.5176 30.28 25.3941 30.095 25.2383 29.9392C25.0825 29.7833 24.8975 29.6598 24.6939 29.5755C24.4903 29.4912 24.2721 29.4479 24.0517 29.448L24.0509 29.4487ZM24.0607 30.0014C24.2127 30.0012 24.3632 30.0309 24.5037 30.0889C24.6442 30.1469 24.7719 30.2321 24.8794 30.3395C24.987 30.4468 25.0724 30.5744 25.1306 30.7147C25.1888 30.8551 25.2188 31.0056 25.2189 31.1576C25.2188 31.3096 25.1888 31.4601 25.1306 31.6005C25.0724 31.7409 24.987 31.8684 24.8794 31.9758C24.7719 32.0832 24.6442 32.1683 24.5037 32.2263C24.3632 32.2843 24.2127 32.314 24.0607 32.3138C23.7541 32.3137 23.46 32.1919 23.2432 31.9751C23.0264 31.7583 22.9046 31.4642 22.9045 31.1576C22.9046 30.851 23.0264 30.557 23.2432 30.3402C23.46 30.1233 23.7541 30.0015 24.0607 30.0014Z" fill="#333333"/>
</svg>
